images/16758838.svg

<?xml version="1.0" encoding="UTF-8"?>
<svg xmlns="http://www.w3.org/2000/svg" xmlns:xlink="http://www.w3.org/1999/xlink" width="300pt" height="300pt" viewBox="0 0 300 300" version="1.1">
<defs>
<g>
<symbol overflow="visible" id="glyph0-0">
<path style="stroke:none;" d="M 0.453125 1.59375 L 0.453125 -6.34375 L 4.953125 -6.34375 L 4.953125 1.59375 Z M 0.953125 1.09375 L 4.453125 1.09375 L 4.453125 -5.84375 L 0.953125 -5.84375 Z M 0.953125 1.09375 "/>
</symbol>
<symbol overflow="visible" id="glyph0-1">
<path style="stroke:none;" d="M 3.546875 -5.953125 C 2.898438 -5.953125 2.382812 -5.710938 2 -5.234375 C 1.625 -4.753906 1.4375 -4.101562 1.4375 -3.28125 C 1.4375 -2.445312 1.625 -1.789062 2 -1.3125 C 2.382812 -0.832031 2.898438 -0.59375 3.546875 -0.59375 C 4.191406 -0.59375 4.703125 -0.832031 5.078125 -1.3125 C 5.453125 -1.789062 5.640625 -2.445312 5.640625 -3.28125 C 5.640625 -4.101562 5.453125 -4.753906 5.078125 -5.234375 C 4.703125 -5.710938 4.191406 -5.953125 3.546875 -5.953125 Z M 3.546875 -6.6875 C 4.460938 -6.6875 5.195312 -6.375 5.75 -5.75 C 6.300781 -5.132812 6.578125 -4.3125 6.578125 -3.28125 C 6.578125 -2.238281 6.300781 -1.410156 5.75 -0.796875 C 5.195312 -0.179688 4.460938 0.125 3.546875 0.125 C 2.617188 0.125 1.878906 -0.179688 1.328125 -0.796875 C 0.773438 -1.410156 0.5 -2.238281 0.5 -3.28125 C 0.5 -4.3125 0.773438 -5.132812 1.328125 -5.75 C 1.878906 -6.375 2.617188 -6.6875 3.546875 -6.6875 Z M 3.546875 -6.6875 "/>
</symbol>
</g>
</defs>
<g id="surface54937">
<rect x="0" y="0" width="300" height="300" style="fill:rgb(100%,100%,100%);fill-opacity:1;stroke:none;"/>
<path style="fill:none;stroke-width:1.2;stroke-linecap:butt;stroke-linejoin:miter;stroke:rgb(0%,0%,0%);stroke-opacity:1;stroke-miterlimit:10;" d="M 91.585938 226.589844 L 82.195312 203.769531 "/>
<path style="fill:none;stroke-width:1.2;stroke-linecap:butt;stroke-linejoin:miter;stroke:rgb(0%,0%,0%);stroke-opacity:1;stroke-miterlimit:10;" d="M 82.582031 200.894531 L 70.355469 199.253906 "/>
<path style="fill:none;stroke-width:1.2;stroke-linecap:butt;stroke-linejoin:miter;stroke:rgb(100%,0%,0%);stroke-opacity:1;stroke-miterlimit:10;" d="M 70.355469 199.253906 L 58.125 197.613281 "/>
<path style="fill:none;stroke-width:1.2;stroke-linecap:butt;stroke-linejoin:miter;stroke:rgb(0%,0%,0%);stroke-opacity:1;stroke-miterlimit:10;" d="M 81.8125 206.648438 L 69.582031 205.007812 "/>
<path style="fill:none;stroke-width:1.2;stroke-linecap:butt;stroke-linejoin:miter;stroke:rgb(100%,0%,0%);stroke-opacity:1;stroke-miterlimit:10;" d="M 69.582031 205.007812 L 57.355469 203.367188 "/>
<path style="fill:none;stroke-width:1.2;stroke-linecap:butt;stroke-linejoin:miter;stroke:rgb(0%,0%,0%);stroke-opacity:1;stroke-miterlimit:10;" d="M 82.195312 203.769531 L 89.730469 194 "/>
<path style="fill:none;stroke-width:1.2;stroke-linecap:butt;stroke-linejoin:miter;stroke:rgb(100%,0%,0%);stroke-opacity:1;stroke-miterlimit:10;" d="M 89.730469 194 L 97.265625 184.230469 "/>
<path style=" stroke:none;fill-rule:nonzero;fill:rgb(100%,100%,100%);fill-opacity:1;" d="M 49.738281 194.992188 L 57.738281 194.992188 L 57.738281 205.992188 L 49.738281 205.992188 Z M 49.738281 194.992188 "/>
<g style="fill:rgb(100%,0%,0%);fill-opacity:1;">
  <use xlink:href="#glyph0-1" x="49.738281" y="203.655273"/>
</g>
<path style="fill:none;stroke-width:1.2;stroke-linecap:butt;stroke-linejoin:miter;stroke:rgb(100%,0%,0%);stroke-opacity:1;stroke-miterlimit:10;" d="M 97.265625 184.230469 L 92.570312 172.820312 "/>
<path style="fill:none;stroke-width:1.2;stroke-linecap:butt;stroke-linejoin:miter;stroke:rgb(0%,0%,0%);stroke-opacity:1;stroke-miterlimit:10;" d="M 92.570312 172.820312 L 87.875 161.410156 "/>
<path style=" stroke:none;fill-rule:nonzero;fill:rgb(100%,100%,100%);fill-opacity:1;" d="M 93.265625 178.730469 L 101.265625 178.730469 L 101.265625 189.730469 L 93.265625 189.730469 Z M 93.265625 178.730469 "/>
<g style="fill:rgb(100%,0%,0%);fill-opacity:1;">
  <use xlink:href="#glyph0-1" x="93.265625" y="187.393555"/>
</g>
<path style="fill:none;stroke-width:1.2;stroke-linecap:butt;stroke-linejoin:miter;stroke:rgb(0%,0%,0%);stroke-opacity:1;stroke-miterlimit:10;" d="M 87.875 161.410156 L 102.941406 141.867188 "/>
<path style="fill:none;stroke-width:1.2;stroke-linecap:butt;stroke-linejoin:miter;stroke:rgb(0%,0%,0%);stroke-opacity:1;stroke-miterlimit:10;" d="M 102.941406 141.867188 L 93.554688 119.050781 "/>
<path style="fill:none;stroke-width:1.2;stroke-linecap:butt;stroke-linejoin:miter;stroke:rgb(100%,0%,0%);stroke-opacity:1;stroke-miterlimit:10;" d="M 127.398438 145.148438 L 115.171875 143.507812 "/>
<path style="fill:none;stroke-width:1.2;stroke-linecap:butt;stroke-linejoin:miter;stroke:rgb(0%,0%,0%);stroke-opacity:1;stroke-miterlimit:10;" d="M 115.171875 143.507812 L 102.941406 141.867188 "/>
<path style="fill:none;stroke-width:1.2;stroke-linecap:butt;stroke-linejoin:miter;stroke:rgb(0%,0%,0%);stroke-opacity:1;stroke-miterlimit:10;" d="M 93.554688 119.050781 L 108.621094 99.507812 "/>
<path style="fill:none;stroke-width:1.2;stroke-linecap:butt;stroke-linejoin:miter;stroke:rgb(0%,0%,0%);stroke-opacity:1;stroke-miterlimit:10;" d="M 93.554688 119.050781 L 81.324219 117.410156 "/>
<path style="fill:none;stroke-width:1.2;stroke-linecap:butt;stroke-linejoin:miter;stroke:rgb(100%,0%,0%);stroke-opacity:1;stroke-miterlimit:10;" d="M 81.324219 117.410156 L 69.097656 115.769531 "/>
<path style="fill:none;stroke-width:1.2;stroke-linecap:butt;stroke-linejoin:miter;stroke:rgb(0%,0%,0%);stroke-opacity:1;stroke-miterlimit:10;" d="M 108.621094 99.507812 L 133.078125 102.785156 "/>
<path style="fill:none;stroke-width:1.2;stroke-linecap:butt;stroke-linejoin:miter;stroke:rgb(0%,0%,0%);stroke-opacity:1;stroke-miterlimit:10;" d="M 110.292969 105.589844 L 129.859375 108.214844 "/>
<path style="fill:none;stroke-width:1.2;stroke-linecap:butt;stroke-linejoin:miter;stroke:rgb(0%,0%,0%);stroke-opacity:1;stroke-miterlimit:10;" d="M 133.078125 102.785156 L 142.464844 125.605469 "/>
<path style="fill:none;stroke-width:1.2;stroke-linecap:butt;stroke-linejoin:miter;stroke:rgb(0%,0%,0%);stroke-opacity:1;stroke-miterlimit:10;" d="M 142.464844 125.605469 L 134.933594 135.375 "/>
<path style="fill:none;stroke-width:1.2;stroke-linecap:butt;stroke-linejoin:miter;stroke:rgb(100%,0%,0%);stroke-opacity:1;stroke-miterlimit:10;" d="M 134.933594 135.375 L 127.398438 145.148438 "/>
<path style="fill:none;stroke-width:1.2;stroke-linecap:butt;stroke-linejoin:miter;stroke:rgb(0%,0%,0%);stroke-opacity:1;stroke-miterlimit:10;" d="M 142.464844 125.605469 L 166.921875 128.882812 "/>
<path style=" stroke:none;fill-rule:nonzero;fill:rgb(100%,100%,100%);fill-opacity:1;" d="M 123.398438 139.648438 L 131.398438 139.648438 L 131.398438 150.648438 L 123.398438 150.648438 Z M 123.398438 139.648438 "/>
<g style="fill:rgb(100%,0%,0%);fill-opacity:1;">
  <use xlink:href="#glyph0-1" x="123.398438" y="148.311523"/>
</g>
<path style="fill:none;stroke-width:1.2;stroke-linecap:butt;stroke-linejoin:miter;stroke:rgb(0%,0%,0%);stroke-opacity:1;stroke-miterlimit:10;" d="M 166.921875 128.882812 L 191.378906 132.164062 "/>
<path style="fill:none;stroke-width:1.2;stroke-linecap:butt;stroke-linejoin:miter;stroke:rgb(0%,0%,0%);stroke-opacity:1;stroke-miterlimit:10;" d="M 168.597656 134.964844 L 188.164062 137.589844 "/>
<path style="fill:none;stroke-width:1.2;stroke-linecap:butt;stroke-linejoin:miter;stroke:rgb(0%,0%,0%);stroke-opacity:1;stroke-miterlimit:10;" d="M 170.140625 123.457031 L 189.707031 126.078125 "/>
<path style="fill:none;stroke-width:1.2;stroke-linecap:butt;stroke-linejoin:miter;stroke:rgb(0%,0%,0%);stroke-opacity:1;stroke-miterlimit:10;" d="M 191.378906 132.164062 L 215.835938 135.441406 "/>
<path style="fill:none;stroke-width:1.2;stroke-linecap:butt;stroke-linejoin:miter;stroke:rgb(0%,0%,0%);stroke-opacity:1;stroke-miterlimit:10;" d="M 215.835938 135.441406 L 225.226562 158.257812 "/>
<path style="fill:none;stroke-width:1.2;stroke-linecap:butt;stroke-linejoin:miter;stroke:rgb(0%,0%,0%);stroke-opacity:1;stroke-miterlimit:10;" d="M 222.144531 135.511719 L 229.65625 153.769531 "/>
<path style="fill:none;stroke-width:1.2;stroke-linecap:butt;stroke-linejoin:miter;stroke:rgb(0%,0%,0%);stroke-opacity:1;stroke-miterlimit:10;" d="M 230.902344 115.898438 L 215.835938 135.441406 "/>
<path style="fill:none;stroke-width:1.2;stroke-linecap:butt;stroke-linejoin:miter;stroke:rgb(0%,0%,0%);stroke-opacity:1;stroke-miterlimit:10;" d="M 225.226562 158.257812 L 249.683594 161.539062 "/>
<path style="fill:none;stroke-width:1.2;stroke-linecap:butt;stroke-linejoin:miter;stroke:rgb(0%,0%,0%);stroke-opacity:1;stroke-miterlimit:10;" d="M 249.683594 161.539062 L 264.75 141.996094 "/>
<path style="fill:none;stroke-width:1.2;stroke-linecap:butt;stroke-linejoin:miter;stroke:rgb(0%,0%,0%);stroke-opacity:1;stroke-miterlimit:10;" d="M 246.589844 156.039062 L 258.644531 140.40625 "/>
<path style="fill:none;stroke-width:1.2;stroke-linecap:butt;stroke-linejoin:miter;stroke:rgb(0%,0%,0%);stroke-opacity:1;stroke-miterlimit:10;" d="M 264.75 141.996094 L 255.359375 119.175781 "/>
<path style="fill:none;stroke-width:1.2;stroke-linecap:butt;stroke-linejoin:miter;stroke:rgb(0%,0%,0%);stroke-opacity:1;stroke-miterlimit:10;" d="M 255.359375 119.175781 L 230.902344 115.898438 "/>
<path style="fill:none;stroke-width:1.2;stroke-linecap:butt;stroke-linejoin:miter;stroke:rgb(0%,0%,0%);stroke-opacity:1;stroke-miterlimit:10;" d="M 252.144531 124.605469 L 232.578125 121.980469 "/>
<path style="fill:none;stroke-width:1.2;stroke-linecap:butt;stroke-linejoin:miter;stroke:rgb(100%,0%,0%);stroke-opacity:1;stroke-miterlimit:10;" d="M 69.097656 115.769531 L 64.402344 104.363281 "/>
<path style="fill:none;stroke-width:1.2;stroke-linecap:butt;stroke-linejoin:miter;stroke:rgb(0%,0%,0%);stroke-opacity:1;stroke-miterlimit:10;" d="M 64.402344 104.363281 L 59.707031 92.953125 "/>
<path style=" stroke:none;fill-rule:nonzero;fill:rgb(100%,100%,100%);fill-opacity:1;" d="M 65.097656 110.269531 L 73.097656 110.269531 L 73.097656 121.269531 L 65.097656 121.269531 Z M 65.097656 110.269531 "/>
<g style="fill:rgb(100%,0%,0%);fill-opacity:1;">
  <use xlink:href="#glyph0-1" x="65.097656" y="118.932617"/>
</g>
<path style="fill:none;stroke-width:1.2;stroke-linecap:butt;stroke-linejoin:miter;stroke:rgb(0%,0%,0%);stroke-opacity:1;stroke-miterlimit:10;" d="M 62.003906 94.722656 L 69.539062 84.953125 "/>
<path style="fill:none;stroke-width:1.2;stroke-linecap:butt;stroke-linejoin:miter;stroke:rgb(100%,0%,0%);stroke-opacity:1;stroke-miterlimit:10;" d="M 69.539062 84.953125 L 77.074219 75.183594 "/>
<path style="fill:none;stroke-width:1.2;stroke-linecap:butt;stroke-linejoin:miter;stroke:rgb(0%,0%,0%);stroke-opacity:1;stroke-miterlimit:10;" d="M 57.40625 91.179688 L 64.941406 81.410156 "/>
<path style="fill:none;stroke-width:1.2;stroke-linecap:butt;stroke-linejoin:miter;stroke:rgb(100%,0%,0%);stroke-opacity:1;stroke-miterlimit:10;" d="M 64.941406 81.410156 L 72.476562 71.636719 "/>
<path style="fill:none;stroke-width:1.2;stroke-linecap:butt;stroke-linejoin:miter;stroke:rgb(0%,0%,0%);stroke-opacity:1;stroke-miterlimit:10;" d="M 59.707031 92.953125 L 35.25 89.671875 "/>
<path style=" stroke:none;fill-rule:nonzero;fill:rgb(100%,100%,100%);fill-opacity:1;" d="M 70.773438 67.910156 L 78.773438 67.910156 L 78.773438 78.910156 L 70.773438 78.910156 Z M 70.773438 67.910156 "/>
<g style="fill:rgb(100%,0%,0%);fill-opacity:1;">
  <use xlink:href="#glyph0-1" x="70.773438" y="76.573242"/>
</g>
</g>
</svg>

<svg xmlns="http://www.w3.org/2000/svg" xmlns:xlink="http://www.w3.org/1999/xlink" width="300pt" height="300pt" viewBox="0 0 300 300"><defs><symbol overflow="visible"><path d="M.453 1.594v-7.938h4.5v7.938zm.5-.5h3.5v-6.938h-3.5zm0 0"/></symbol><symbol overflow="visible" id="a"><path d="M3.547-5.953c-.65 0-1.164.242-1.547.72-.375.48-.563 1.13-.563 1.952 0 .835.188 1.49.563 1.967.383.48.898.72 1.547.72.644 0 1.156-.24 1.53-.72.376-.476.564-1.132.564-1.968 0-.822-.187-1.474-.562-1.954-.375-.477-.887-.72-1.53-.72zm0-.734c.914 0 1.648.312 2.203.937.55.617.828 1.438.828 2.47 0 1.042-.277 1.87-.828 2.483-.555.617-1.29.922-2.203.922-.93 0-1.668-.305-2.22-.922C.774-1.41.5-2.237.5-3.28c0-1.033.273-1.853.828-2.47.55-.625 1.29-.938 2.22-.938zm0 0"/></symbol></defs><g><path fill="#fff" d="M0 0h300v300H0z"/><path d="M91.586 226.59l-9.39-22.82M82.582 200.895l-12.227-1.64" stroke-width="1.2" stroke="#000" stroke-miterlimit="10" fill="none"/><path d="M70.355 199.254l-12.23-1.64" stroke-width="1.2" stroke="#f00" stroke-miterlimit="10" fill="none"/><path d="M81.813 206.648l-12.23-1.64" stroke-width="1.2" stroke="#000" stroke-miterlimit="10" fill="none"/><path d="M69.582 205.008l-12.227-1.64" stroke-width="1.2" stroke="#f00" stroke-miterlimit="10" fill="none"/><path d="M82.195 203.77L89.73 194" stroke-width="1.2" stroke="#000" stroke-miterlimit="10" fill="none"/><path d="M89.73 194l7.536-9.77" stroke-width="1.2" stroke="#f00" stroke-miterlimit="10" fill="none"/><path d="M49.738 194.992h8v11h-8zm0 0" fill="#fff"/><use xlink:href="#a" x="49.738" y="203.655" fill="#f00"/><path d="M97.266 184.23l-4.696-11.41" stroke-width="1.2" stroke="#f00" stroke-miterlimit="10" fill="none"/><path d="M92.57 172.82l-4.695-11.41" stroke-width="1.2" stroke="#000" stroke-miterlimit="10" fill="none"/><path d="M93.266 178.73h8v11h-8zm0 0" fill="#fff"/><use xlink:href="#a" x="93.266" y="187.394" fill="#f00"/><path d="M87.875 161.41l15.066-19.543M102.94 141.867l-9.385-22.816" stroke-width="1.2" stroke="#000" stroke-miterlimit="10" fill="none"/><path d="M127.398 145.148l-12.226-1.64" stroke-width="1.2" stroke="#f00" stroke-miterlimit="10" fill="none"/><path d="M115.172 143.508l-12.23-1.64M93.555 119.05L108.62 99.51M93.555 119.05l-12.23-1.64" stroke-width="1.2" stroke="#000" stroke-miterlimit="10" fill="none"/><path d="M81.324 117.41l-12.226-1.64" stroke-width="1.2" stroke="#f00" stroke-miterlimit="10" fill="none"/><path d="M108.62 99.508l24.458 3.277M110.293 105.59l19.566 2.625M133.078 102.785l9.387 22.82M142.465 125.605l-7.53 9.77" stroke-width="1.2" stroke="#000" stroke-miterlimit="10" fill="none"/><path d="M134.934 135.375l-7.536 9.773" stroke-width="1.2" stroke="#f00" stroke-miterlimit="10" fill="none"/><path d="M142.465 125.605l24.457 3.278" stroke-width="1.2" stroke="#000" stroke-miterlimit="10" fill="none"/><path d="M123.398 139.648h8v11h-8zm0 0" fill="#fff"/><use xlink:href="#a" x="123.398" y="148.312" fill="#f00"/><path d="M166.922 128.883l24.457 3.28M168.598 134.965l19.566 2.625M170.14 123.457l19.567 2.62M191.38 132.164l24.456 3.277M215.836 135.44l9.39 22.818M222.145 135.512l7.51 18.258M230.902 115.898l-15.066 19.543M225.227 158.258l24.457 3.28M249.684 161.54l15.066-19.544M246.59 156.04l12.055-15.634M264.75 141.996l-9.39-22.82M255.36 119.176l-24.458-3.278M252.145 124.605l-19.567-2.625" stroke-width="1.2" stroke="#000" stroke-miterlimit="10" fill="none"/><path d="M69.098 115.77l-4.696-11.407" stroke-width="1.2" stroke="#f00" stroke-miterlimit="10" fill="none"/><path d="M64.402 104.363l-4.695-11.41" stroke-width="1.2" stroke="#000" stroke-miterlimit="10" fill="none"/><path d="M65.098 110.27h8v11h-8zm0 0" fill="#fff"/><use xlink:href="#a" x="65.098" y="118.933" fill="#f00"/><path d="M62.004 94.723l7.535-9.77" stroke-width="1.2" stroke="#000" stroke-miterlimit="10" fill="none"/><path d="M69.54 84.953l7.534-9.77" stroke-width="1.2" stroke="#f00" stroke-miterlimit="10" fill="none"/><path d="M57.406 91.18l7.535-9.77" stroke-width="1.2" stroke="#000" stroke-miterlimit="10" fill="none"/><path d="M64.94 81.41l7.537-9.773" stroke-width="1.2" stroke="#f00" stroke-miterlimit="10" fill="none"/><path d="M59.707 92.953l-24.457-3.28" stroke-width="1.2" stroke="#000" stroke-miterlimit="10" fill="none"/><path d="M70.773 67.91h8v11h-8zm0 0" fill="#fff"/><use xlink:href="#a" x="70.773" y="76.573" fill="#f00"/></g></svg>
